img/svg-icons/hrc-icons_linkedin.svg

<?xml version="1.0" encoding="utf-8"?>
<!-- Generator: Adobe Illustrator 19.1.1, SVG Export Plug-In . SVG Version: 6.00 Build 0)  -->
<svg version="1.1" id="icons" xmlns="http://www.w3.org/2000/svg" xmlns:xlink="http://www.w3.org/1999/xlink" x="0px" y="0px"
	 viewBox="0 0 16 16" style="enable-background:new 0 0 16 16;" xml:space="preserve">
<g id="arrow-large-r">
</g>
<g id="link-external">
</g>
<g id="link-list">
</g>
<path id="linkedin" style="fill:#FFFFFF;" d="M4.4,2.9c0,0.8-0.6,1.4-1.5,1.4C2,4.3,1.4,3.7,1.4,2.9c0-0.8,0.6-1.4,1.5-1.4
	C3.8,1.5,4.4,2.1,4.4,2.9z M1.5,14.5V5.4h2.8v9.1H1.5z M6,8.3c0-1.1,0-2.1-0.1-2.9h2.4l0.1,1.3h0.1c0.4-0.6,1.3-1.5,2.8-1.5
	c1.8,0,3.2,1.2,3.2,3.9v5.4h-2.8v-5c0-1.2-0.4-2-1.4-2C9.6,7.5,9.1,8,8.9,8.6C8.8,8.8,8.8,9,8.8,9.3v5.2H6V8.3z"/>
<g id="download">
</g>
<g id="info">
</g>
<g id="close">
</g>
<g id="dismiss">
</g>
<g id="search">
</g>
<g id="filter-open">
</g>
<g id="filter-close">
</g>
<g id="fail">
</g>
<g id="pass">
</g>
<g id="smart-t-fail">
</g>
<g id="smart-r-fail">
</g>
<g id="smart-a-fail">
</g>
<g id="smart-m-fail">
</g>
<g id="smart-s-fail">
	<g id="smart-s-fail_1_">
	</g>
</g>
<g id="smart-t">
</g>
<g id="smart-r">
</g>
<g id="smart-a">
</g>
<g id="smart-m">
</g>
<g id="smart-s">
	<g id="smart-s_1_">
	</g>
</g>
<g id="hrc-logo">
</g>
</svg>

<svg xmlns="http://www.w3.org/2000/svg" viewBox="0 0 16 16"><title>hrc-icons</title><path d="M4.4,2.9A1.4,1.4,0,0,1,2.9,4.3,1.4,1.4,0,0,1,1.4,2.9,1.4,1.4,0,0,1,2.9,1.5,1.4,1.4,0,0,1,4.4,2.9ZM1.5,14.5V5.4H4.3v9.1H1.5ZM6,8.3c0-1.1,0-2.1-.1-2.9H8.4V6.7H8.5a3.3,3.3,0,0,1,2.8-1.5c1.8,0,3.2,1.2,3.2,3.9v5.4H11.8v-5c0-1.2-.4-2-1.4-2A1.5,1.5,0,0,0,8.9,8.6a2,2,0,0,0-.1.7v5.2H6V8.3Z" style="fill:#fff"/></svg>
